X:152
T:Pantalon. RHu.148
S:R.Hughes MS,1823,Whitchurch,Shrops.
A:Whitchurch, Shropshire
Z:Tony Weatherall 2006
M:6/8
L:1/8
Q:3/8=110
R:Quadrille
K:G
B/c/|d>cB c>de|(d3d2)c|B<GE D>B,D|E G2zBc|!
d>cB c>de|d>ba g>fe|d>ed cAF|G3-G2||!
d|B/c/”sq”dBg2d|eaaa2c|B/c/”sq”dBG2d|eaaa2g/a/|!
b>ag d>ef|a2gg2||E|E>FG B^c^d|!
e3e2f|g>fe B>e^d|e3e2 f|g>fe d>cB|!
c2e e>fg|d>ed cAF|G3G2|]

